icons/1_Primary/Gosuslugi.svg

<svg width="1024" height="1024" fill="none" xmlns="http://www.w3.org/2000/svg"><g clip-path="url(#a)"><path d="M512 1024c282.77 0 512-229.23 512-512S794.77 0 512 0 0 229.23 0 512s229.23 512 512 512Z" fill="#FF837D"/><path d="M768 511.51a892.733 892.733 0 0 1-5.18 94.8 138.36 138.36 0 0 1-47.4 84.35S680.6 716 637.64 742.17a869.508 869.508 0 0 1-82.22 43.29 116.897 116.897 0 0 1-47.4 9 119.385 119.385 0 0 1-47.4-8.73 864.266 864.266 0 0 1-82.22-43.29c-43-25.38-77.77-51.51-77.77-51.51-9.63-7.79-19.23-19.17-27.29-31.93a2.187 2.187 0 0 1 .754-3.052c.339-.197.724-.3 1.116-.298h36.24a3 3 0 0 1 2.26 1 93.783 93.783 0 0 0 11.79 11.44s30.64 22.8 68.44 45a762.584 762.584 0 0 0 72.35 37.78 105.852 105.852 0 0 0 41.71 7.61 103.599 103.599 0 0 0 41.72-7.82 767.287 767.287 0 0 0 72.35-37.78c37.81-22.8 68.44-45 68.44-45a120.5 120.5 0 0 0 41.72-73.62 772.649 772.649 0 0 0 4.56-82.74c-.65-44.76-5.21-82.54-5.21-82.54-2-25.41-21.51-58-41.06-73.61a747.113 747.113 0 0 0-68.44-44.3 762.584 762.584 0 0 0-72.35-37.78 105.841 105.841 0 0 0-41.73-7.78 103.616 103.616 0 0 0-41.72 7.82 767.287 767.287 0 0 0-72.35 37.78c-37.81 22.8-68.44 44.3-68.44 44.3a120.537 120.537 0 0 0-13.64 13.39 3.001 3.001 0 0 1-2.27 1h-36.1a2.169 2.169 0 0 1-1.104-.289 2.185 2.185 0 0 1-.786-3.011 137.791 137.791 0 0 1 29-34s34.81-24.63 77.77-50.76a869.386 869.386 0 0 1 82.22-43.29 116.897 116.897 0 0 1 47.4-9 119.399 119.399 0 0 1 47.4 9 864.266 864.266 0 0 1 82.22 43.29 848.295 848.295 0 0 1 77.77 50.76c22.22 17.92 44.44 55.24 46.66 84.35.04.09 5.23 43.38 5.97 94.66Zm-318 76.58h17.1a.893.893 0 0 0 .89-.89v-69.48a.89.89 0 0 0-.89-.89H415a.877.877 0 0 0-.89.85 296.07 296.07 0 0 1-3.78 35.51 289.166 289.166 0 0 1-8.1 33.77.894.894 0 0 0 .141.782.88.88 0 0 0 .709.358h17.52a.877.877 0 0 0 .83-.6 250.72 250.72 0 0 0 7.12-28.54 228.658 228.658 0 0 0 3.45-25.43h17.13v53.67a.891.891 0 0 0 .87.89ZM256.89 484.17h17a.893.893 0 0 0 .89-.89v-53.67h26a.87.87 0 0 0 .9-.54l6.22-14.93a.892.892 0 0 0-.079-.829.887.887 0 0 0-.731-.401h-50.2a.89.89 0 0 0-.89.89v69.49a.894.894 0 0 0 .89.88Zm322.9 103.92a.893.893 0 0 0 .89-.89v-53.67h26a.87.87 0 0 0 .9-.54l6.23-14.93a.892.892 0 0 0-.079-.829.887.887 0 0 0-.731-.401h-50.3a.89.89 0 0 0-.89.89v69.48a.892.892 0 0 0 .89.89h17.09Zm-290.16 25.63C303.27 586 313.31 561.34 327 518a.894.894 0 0 0-.436-1.071.903.903 0 0 0-.404-.099h-17.09a.902.902 0 0 0-.86.65 455.227 455.227 0 0 1-15.81 47L275 517.4a.89.89 0 0 0-.83-.58h-17.28a.886.886 0 0 0-.722.374.876.876 0 0 0-.108.806L282 588.1c-3.66 7.69-7.72 15.79-12.37 24.81a.897.897 0 0 0 .029.872.89.89 0 0 0 .761.428h18.44a.9.9 0 0 0 .77-.49Zm204.2.49h18.44a.901.901 0 0 0 .79-.49C526.7 586 536.75 561.34 550.47 518a.898.898 0 0 0-.439-1.066.892.892 0 0 0-.401-.104H532.5a.902.902 0 0 0-.86.65 455.227 455.227 0 0 1-15.81 47l-17.4-47.08a.89.89 0 0 0-.83-.58h-17.28a.886.886 0 0 0-.722.374.876.876 0 0 0-.108.806l25.92 70.09c-3.66 7.69-7.72 15.79-12.37 24.81a.889.889 0 0 0 .79 1.31Zm-124-82.78c4.647.031 9.264.752 13.7 2.14a.92.92 0 0 0 1.08-.46c1.94-3.63 4.29-8.08 6.93-13.52a.912.912 0 0 0 0-.77.995.995 0 0 0-.58-.53 76.957 76.957 0 0 0-22.36-3.44c-24.49 0-35.41 11.5-35.41 37.31 0 26.18 10.92 37.86 35.41 37.86 6.14 0 18.23-1.28 24.07-3.6a.936.936 0 0 0 .53-1.18l-5.06-14a1.003 1.003 0 0 0-.49-.53 1.004 1.004 0 0 0-.72 0 59.396 59.396 0 0 1-17.1 2.74c-11.69 0-17.26-3.14-17.26-21-.01-14.29 1.7-21.01 17.25-21.01l.01-.01Zm58.65-103.92a46.96 46.96 0 0 1 13.7 2.14.92.92 0 0 0 1.08-.46c1.94-3.63 4.29-8.08 6.93-13.52a.912.912 0 0 0 0-.77.995.995 0 0 0-.58-.53 76.957 76.957 0 0 0-22.36-3.44c-24.49 0-35.41 11.5-35.41 37.31 0 26.18 10.92 37.86 35.41 37.86 6.14 0 18.23-1.28 24.07-3.6a.936.936 0 0 0 .53-1.18l-5.06-14a1.003 1.003 0 0 0-.49-.53 1.004 1.004 0 0 0-.72 0 59.396 59.396 0 0 1-17.1 2.74c-11.69 0-17.26-3.14-17.26-21-.01-14.29 1.7-21.01 17.25-21.01l.01-.01Zm-49.24 20.73c0 27.26-9.41 37.86-33.55 37.86-23.95 0-33.27-10.6-33.27-37.86 0-26.85 9.32-37.31 33.27-37.31 24.14.01 33.55 10.47 33.55 37.32v-.01Zm-19 .27c0-20.16-3.78-21.95-14.59-21.95-10.6 0-14.31 1.79-14.31 21.95 0 18.93 3.4 22 14.31 22 11.16-.04 14.63-3.06 14.63-21.99l-.04-.01Zm279.66 68.32h-17.05a.889.889 0 0 0-.632.258.872.872 0 0 0-.258.632v40.58c.41 22.82 8.69 31.76 29.13 31.76a102.774 102.774 0 0 0 33.16-6 .9.9 0 0 0 .6-.87v-65.48a.85.85 0 0 0-.87-.89H667a.889.889 0 0 0-.632.258.872.872 0 0 0-.258.632v53.69a42.013 42.013 0 0 1-11.54 1.53c-10.34 0-13.34-2.91-13.73-15v-40.22a.882.882 0 0 0-.94-.88Z" fill="#fff"/></g><defs><clipPath id="a"><path fill="#fff" d="M0 0h1024v1024H0z"/></clipPath></defs></svg>

<svg width="1024" height="1024" viewBox="0 0 1024 1024" fill="none" xmlns="http://www.w3.org/2000/svg">
<g clip-path="url(#clip0_2_2316)">
<path d="M512 1024C794.77 1024 1024 794.77 1024 512C1024 229.23 794.77 0 512 0C229.23 0 0 229.23 0 512C0 794.77 229.23 1024 512 1024Z" fill="#FF837D"/>
<path d="M768 511.51C767.956 543.18 766.227 574.824 762.82 606.31C757.686 639.215 740.857 669.164 715.42 690.66C715.42 690.66 680.6 716 637.64 742.17C611.024 758.055 583.579 772.506 555.42 785.46C540.418 791.723 524.274 794.789 508.02 794.46C491.791 794.803 475.662 791.832 460.62 785.73C432.457 772.785 405.011 758.334 378.4 742.44C335.4 717.06 300.63 690.93 300.63 690.93C291 683.14 281.4 671.76 273.34 659C273.132 658.668 273.018 658.286 273.008 657.894C272.999 657.502 273.094 657.115 273.285 656.773C273.476 656.43 273.756 656.146 274.094 655.948C274.433 655.751 274.818 655.648 275.21 655.65H311.45C311.876 655.647 312.298 655.734 312.688 655.907C313.077 656.079 313.426 656.333 313.71 656.65C317.298 660.801 321.243 664.629 325.5 668.09C325.5 668.09 356.14 690.89 393.94 713.09C417.365 726.966 441.516 739.577 466.29 750.87C479.538 756.194 493.726 758.782 508 758.48C522.297 758.781 536.502 756.118 549.72 750.66C574.49 739.359 598.641 726.748 622.07 712.88C659.88 690.08 690.51 667.88 690.51 667.88C712.859 649.191 727.68 623.037 732.23 594.26C735.229 566.782 736.751 539.162 736.79 511.52C736.14 466.76 731.58 428.98 731.58 428.98C729.58 403.57 710.07 370.98 690.52 355.37C668.53 339.369 645.683 324.58 622.08 311.07C598.655 297.194 574.504 284.583 549.73 273.29C536.488 267.905 522.293 265.259 508 265.51C493.703 265.21 479.498 267.872 466.28 273.33C441.51 284.631 417.359 297.242 393.93 311.11C356.12 333.91 325.49 355.41 325.49 355.41C320.596 359.505 316.035 363.983 311.85 368.8C311.565 369.119 311.215 369.373 310.823 369.546C310.432 369.718 310.008 369.805 309.58 369.8H273.48C273.093 369.804 272.711 369.704 272.376 369.511C272.04 369.319 271.761 369.04 271.569 368.704C271.376 368.368 271.277 367.986 271.28 367.599C271.284 367.212 271.391 366.832 271.59 366.5C279.342 353.664 289.138 342.18 300.59 332.5C300.59 332.5 335.4 307.87 378.36 281.74C404.975 265.855 432.421 251.404 460.58 238.45C475.582 232.187 491.726 229.121 507.98 229.45C524.228 229.193 540.357 232.256 555.38 238.45C583.543 251.395 610.989 265.846 637.6 281.74C664.431 297.227 690.393 314.173 715.37 332.5C737.59 350.42 759.81 387.74 762.03 416.85C762.07 416.94 767.26 460.23 768 511.51ZM450 588.09H467.1C467.336 588.09 467.562 587.996 467.729 587.83C467.896 587.663 467.99 587.436 467.99 587.2V517.72C467.99 517.484 467.896 517.258 467.729 517.091C467.562 516.924 467.336 516.83 467.1 516.83H415C414.77 516.827 414.548 516.915 414.382 517.074C414.215 517.233 414.118 517.45 414.11 517.68C413.566 529.582 412.303 541.44 410.33 553.19C408.309 564.599 405.604 575.876 402.23 586.96C402.191 587.093 402.184 587.232 402.208 587.368C402.233 587.503 402.288 587.632 402.371 587.742C402.453 587.853 402.56 587.943 402.683 588.005C402.806 588.067 402.942 588.1 403.08 588.1H420.6C420.784 588.099 420.962 588.041 421.111 587.933C421.26 587.826 421.372 587.674 421.43 587.5C424.36 578.134 426.737 568.605 428.55 558.96C430.175 550.555 431.327 542.065 432 533.53H449.13V587.2C449.13 587.433 449.221 587.656 449.384 587.823C449.546 587.989 449.767 588.085 450 588.09ZM256.89 484.17H273.89C274.126 484.17 274.352 484.076 274.519 483.91C274.686 483.743 274.78 483.516 274.78 483.28V429.61H300.78C300.968 429.63 301.158 429.589 301.321 429.491C301.483 429.394 301.609 429.246 301.68 429.07L307.9 414.14C307.956 414.006 307.977 413.86 307.964 413.716C307.95 413.571 307.901 413.432 307.821 413.311C307.741 413.189 307.633 413.089 307.505 413.02C307.378 412.95 307.235 412.912 307.09 412.91H256.89C256.654 412.91 256.428 413.004 256.261 413.171C256.094 413.338 256 413.564 256 413.8V483.29C256.003 483.525 256.098 483.748 256.264 483.913C256.431 484.078 256.656 484.17 256.89 484.17ZM579.79 588.09C580.026 588.09 580.252 587.996 580.419 587.83C580.586 587.663 580.68 587.436 580.68 587.2V533.53H606.68C606.868 533.55 607.058 533.509 607.221 533.411C607.383 533.314 607.509 533.166 607.58 532.99L613.81 518.06C613.866 517.926 613.887 517.78 613.874 517.636C613.86 517.491 613.811 517.352 613.731 517.231C613.651 517.109 613.543 517.009 613.415 516.94C613.288 516.87 613.145 516.832 613 516.83H562.7C562.464 516.83 562.238 516.924 562.071 517.091C561.904 517.258 561.81 517.484 561.81 517.72V587.2C561.81 587.436 561.904 587.663 562.071 587.83C562.238 587.996 562.464 588.09 562.7 588.09H579.79ZM289.63 613.72C303.27 586 313.31 561.34 327 518C327.044 517.867 327.056 517.725 327.035 517.586C327.014 517.447 326.96 517.315 326.878 517.201C326.796 517.087 326.688 516.994 326.564 516.929C326.439 516.865 326.3 516.831 326.16 516.83H309.07C308.876 516.831 308.687 516.895 308.532 517.012C308.377 517.129 308.264 517.293 308.21 517.48C303.798 533.422 298.52 549.112 292.4 564.48L275 517.4C274.937 517.231 274.824 517.084 274.676 516.981C274.527 516.877 274.351 516.821 274.17 516.82H256.89C256.748 516.82 256.609 516.854 256.483 516.919C256.357 516.984 256.249 517.078 256.168 517.194C256.086 517.31 256.034 517.443 256.015 517.584C255.996 517.724 256.012 517.867 256.06 518L282 588.1C278.34 595.79 274.28 603.89 269.63 612.91C269.56 613.046 269.525 613.197 269.53 613.35C269.536 613.503 269.58 613.652 269.659 613.782C269.739 613.913 269.85 614.021 269.984 614.096C270.117 614.171 270.267 614.21 270.42 614.21H288.86C289.02 614.205 289.176 614.156 289.312 614.07C289.447 613.984 289.557 613.863 289.63 613.72ZM493.83 614.21H512.27C512.434 614.208 512.594 614.161 512.733 614.075C512.872 613.989 512.985 613.866 513.06 613.72C526.7 586 536.75 561.34 550.47 518C550.512 517.867 550.522 517.726 550.5 517.588C550.478 517.45 550.424 517.319 550.343 517.205C550.261 517.092 550.154 516.999 550.031 516.934C549.907 516.868 549.77 516.833 549.63 516.83H532.5C532.306 516.831 532.117 516.895 531.962 517.012C531.807 517.129 531.694 517.293 531.64 517.48C527.228 533.422 521.95 549.112 515.83 564.48L498.43 517.4C498.367 517.231 498.254 517.084 498.106 516.981C497.957 516.877 497.781 516.821 497.6 516.82H480.32C480.178 516.82 480.039 516.854 479.913 516.919C479.787 516.984 479.679 517.078 479.598 517.194C479.516 517.31 479.464 517.443 479.445 517.584C479.426 517.724 479.442 517.867 479.49 518L505.41 588.09C501.75 595.78 497.69 603.88 493.04 612.9C492.967 613.036 492.931 613.189 492.935 613.343C492.939 613.497 492.983 613.648 493.063 613.78C493.142 613.912 493.255 614.021 493.389 614.096C493.524 614.172 493.676 614.211 493.83 614.21ZM369.83 531.43C374.477 531.461 379.094 532.182 383.53 533.57C383.735 533.631 383.956 533.619 384.153 533.535C384.35 533.451 384.512 533.301 384.61 533.11C386.55 529.48 388.9 525.03 391.54 519.59C391.596 519.47 391.625 519.338 391.625 519.205C391.625 519.072 391.596 518.941 391.54 518.82C391.484 518.697 391.404 518.587 391.304 518.496C391.205 518.405 391.087 518.335 390.96 518.29C383.717 516.048 376.182 514.889 368.6 514.85C344.11 514.85 333.19 526.35 333.19 552.16C333.19 578.34 344.11 590.02 368.6 590.02C374.74 590.02 386.83 588.74 392.67 586.42C392.893 586.329 393.072 586.155 393.17 585.936C393.269 585.716 393.28 585.467 393.2 585.24L388.14 571.24C388.048 571.009 387.874 570.82 387.65 570.71C387.418 570.621 387.162 570.621 386.93 570.71C381.394 572.454 375.633 573.377 369.83 573.45C358.14 573.45 352.57 570.31 352.57 552.45C352.56 538.16 354.27 531.44 369.82 531.44L369.83 531.43ZM428.48 427.51C433.127 427.541 437.744 428.263 442.18 429.65C442.385 429.711 442.606 429.699 442.803 429.615C443 429.531 443.162 429.381 443.26 429.19C445.2 425.56 447.55 421.11 450.19 415.67C450.246 415.55 450.275 415.418 450.275 415.285C450.275 415.152 450.246 415.021 450.19 414.9C450.134 414.777 450.054 414.667 449.954 414.576C449.855 414.485 449.737 414.415 449.61 414.37C442.367 412.128 434.832 410.969 427.25 410.93C402.76 410.93 391.84 422.43 391.84 448.24C391.84 474.42 402.76 486.1 427.25 486.1C433.39 486.1 445.48 484.82 451.32 482.5C451.543 482.409 451.722 482.235 451.82 482.016C451.919 481.796 451.93 481.547 451.85 481.32L446.79 467.32C446.698 467.089 446.524 466.9 446.3 466.79C446.068 466.701 445.812 466.701 445.58 466.79C440.044 468.534 434.283 469.457 428.48 469.53C416.79 469.53 411.22 466.39 411.22 448.53C411.21 434.24 412.92 427.52 428.47 427.52L428.48 427.51ZM379.24 448.24C379.24 475.5 369.83 486.1 345.69 486.1C321.74 486.1 312.42 475.5 312.42 448.24C312.42 421.39 321.74 410.93 345.69 410.93C369.83 410.94 379.24 421.4 379.24 448.25V448.24ZM360.24 448.51C360.24 428.35 356.46 426.56 345.65 426.56C335.05 426.56 331.34 428.35 331.34 448.51C331.34 467.44 334.74 470.51 345.65 470.51C356.81 470.47 360.28 467.45 360.28 448.52L360.24 448.51ZM639.9 516.83H622.85C622.733 516.829 622.616 516.851 622.508 516.895C622.399 516.939 622.301 517.005 622.218 517.088C622.135 517.171 622.069 517.269 622.025 517.378C621.981 517.487 621.959 517.603 621.96 517.72V558.3C622.37 581.12 630.65 590.06 651.09 590.06C662.398 589.898 673.602 587.871 684.25 584.06C684.429 583.997 684.583 583.879 684.691 583.723C684.799 583.566 684.854 583.38 684.85 583.19V517.71C684.855 517.594 684.837 517.477 684.795 517.368C684.754 517.259 684.69 517.159 684.609 517.076C684.527 516.992 684.429 516.926 684.321 516.883C684.213 516.839 684.097 516.817 683.98 516.82H667C666.883 516.819 666.766 516.841 666.658 516.885C666.549 516.929 666.451 516.995 666.368 517.078C666.285 517.161 666.219 517.259 666.175 517.368C666.131 517.477 666.109 517.593 666.11 517.71V571.4C662.353 572.443 658.469 572.958 654.57 572.93C644.23 572.93 641.23 570.02 640.84 557.93V517.71C640.84 517.589 640.816 517.47 640.768 517.359C640.72 517.248 640.65 517.148 640.561 517.066C640.473 516.983 640.369 516.92 640.255 516.879C640.141 516.839 640.021 516.822 639.9 516.83Z" fill="white"/>
</g>
<defs>
<clipPath id="clip0_2_2316">
<rect width="1024" height="1024" fill="white"/>
</clipPath>
</defs>
</svg>
